public/defaultCompany.svg

<?xml version="1.0" standalone="no"?><!DOCTYPE svg PUBLIC "-//W3C//DTD SVG 1.1//EN" "http://www.w3.org/Graphics/SVG/1.1/DTD/svg11.dtd"><svg class="icon" height="512" viewBox="0 0 1024 1024" version="1.1" xmlns="http://www.w3.org/2000/svg"><path d="M510.118 44.768c-259.469 0-470.055 210.588-470.055 470.055s210.588 470.055 470.055 470.055 470.055-210.588 470.055-470.055-210.588-470.055-470.055-470.055z" fill="#EDEDED" /><path d="M430.21 787.457h-124.096v-55.465l124.096-8.454zM430.21 683.107l-124.096 12.221v-52.649l124.096-20.685zM430.21 578.754l-124.096 24.442v-53.59l124.096-31.964zM430.21 476.276l-124.096 33.842v-56.403l124.096-40.427z" fill="#B8B8B8" /><path d="M568.403 786.508h-102.47v-428.69l-198.368 63.932v366.638h-34.784v-385.444l266.055-93.069 69.564 41.365z" fill="#B8B8B8" /><path d="M787.457 786.508h-158.878v-542.444l-237.841 78.030v-24.442l262.286-94.010 78.972 65.807v482.275h55.465z" fill="#B8B8B8" /></svg>

<svg class="icon" height="512" viewBox="0 0 1024 1024" xmlns="http://www.w3.org/2000/svg"><path d="M510.118 44.768c-259.469 0-470.055 210.588-470.055 470.055s210.588 470.055 470.055 470.055S980.173 774.29 980.173 514.823 769.585 44.768 510.118 44.768z" fill="#EDEDED"/><path d="M430.21 787.457H306.114v-55.465l124.096-8.454zm0-104.35-124.096 12.221v-52.649l124.096-20.685zm0-104.353-124.096 24.442v-53.59l124.096-31.964zm0-102.478-124.096 33.842v-56.403l124.096-40.427z" fill="#B8B8B8"/><path d="M568.403 786.508h-102.47v-428.69L267.565 421.75v366.638h-34.784V402.944l266.055-93.069L568.4 351.24z" fill="#B8B8B8"/><path d="M787.457 786.508H628.579V244.064l-237.841 78.03v-24.442l262.286-94.01 78.972 65.807v482.275h55.465z" fill="#B8B8B8"/></svg>
